!!!OTL: ACH HERZCHEN SCHOENSTES SCHAETZCHEN
!!!ARE: Europa, Mitteleuropa, Deutschland, Hessen, Dillkreis, Fleisbach
!!!SCT: E0869
!!!YEM: Copyright 1995, estate of Helmut Schaffrath.
**kern
*ICvox
*Ivox
*M3/4
*k[f#]
*G:
{4d
=1
4.g
8f#
8g
8g
=2
4.a
8g
4a
=3
4.b
8cc
8dd
8b
=4
2a}
{8a
8b
=5
4.cc
8dd
4ee
=6
4.dd
8cc
4b
=7
4cc
4b
4a
=8
2b}
{8a
8b
=9
4.cc
8dd
4ee
=10
4.dd
8cc
4b
=11
4cc
4b
4a
=12
2g}
==
!!!AGN: Hochzeits -, Ehestands - Lied
!!!ONB: ESAC (Essen Associative Code) Database: ERK2
!!!AMT: simple triple
!!!AIN: vox
!!!EED: Helmut Schaffrath
!!!EEV: 1.0
*-
